X: 13
T:Knocknabower Polka No. 2, The
T:Knocknaboul Polka, The
T:Sneem Polka, The
M:2/4
L:1/8
R:Polka
K:G
D[|:GB B/2c/2B/2A/2|GB B>A|FA A/2B/2A/2G/2|FA D2|!
GB B/2c/2B/2A/2|GB d>g|fd cA|1G2 GD:|2G2 Gd|!
|:g2 g>f|ga a>g|fd de|fg af|!
g2 g>f|ga a>g|fd cA|1G2 Gd:|2G2 GA|!
|:B2 c^c|dc AG|F>E FD|FG Ac|!
B2 "var."cB/2c/2|dc Ag|fd cA|1G2 GA:|2G2 GD|]
